lib/brands/logos/sofort.svg

<svg xmlns="http://www.w3.org/2000/svg" fill="none" aria-hidden="true" viewBox="0 0 114 76"><g id="Sofort" clip-path="url(#clip0_2757_247935)"><g id="Group"><path id="Vector" fill="#EF809F" d="M107.963 75.9241H5.91619C2.66988 75.8938 0.0455322 73.2542 0.0455322 69.9928V6.00714C0.0455322 2.7305 2.70022 0.0758057 5.97687 0.0758057H107.902C111.178 0.0758057 113.833 2.7305 113.833 6.00714V70.0079C113.818 73.2542 111.209 75.8938 107.963 75.9241Z"/><path id="Vector_2" fill="white" d="M34.1925 67.8691C36.7713 67.8691 38.7434 66.1397 38.7434 63.6064C38.7434 61.2551 37.0747 60.2387 35.0268 59.6319C33.7222 59.2527 32.903 58.9645 32.903 58.0391C32.903 57.2655 33.4643 56.6587 34.3593 56.6587C35.1178 56.6587 35.6791 57.0986 36.0887 57.7661L38.2276 56.416C37.5601 54.9445 36.0583 54.186 34.4352 54.186C31.8563 54.186 30.218 56.0367 30.218 58.1908C30.218 59.905 31.2495 61.2248 33.7829 61.9681C35.1633 62.3625 36.0432 62.6355 36.0432 63.7278C36.0432 64.7593 35.2998 65.3964 34.2228 65.3964C33.0699 65.3964 32.1901 64.6531 31.6591 63.9705L29.8843 65.7453C30.84 67.0499 32.3873 67.8691 34.1925 67.8691ZM44.614 67.8691C41.8835 67.8691 39.6687 65.6846 39.6687 63.0299C39.6687 60.3753 41.8835 58.1908 44.614 58.1908C47.3446 58.1908 49.5593 60.3753 49.5593 63.0299C49.5593 65.6846 47.3446 67.8691 44.614 67.8691ZM44.614 65.4419C45.9338 65.4419 46.9805 64.3952 46.9805 63.0299C46.9805 61.6647 45.9338 60.618 44.614 60.618C43.2791 60.618 42.2476 61.6647 42.2476 63.0299C42.2476 64.4104 43.2943 65.4419 44.614 65.4419ZM55.9458 56.78V54.3529H55.5665C52.4264 54.3529 50.8791 56.4463 50.8791 58.9038V67.6264H53.4579V63.8036C53.4579 62.5294 54.444 61.6192 55.8699 61.5888V59.1313C54.8535 59.1313 54.0344 59.4347 53.4579 60.0415V59.0555C53.4579 57.4475 54.5046 56.7194 55.9458 56.78ZM61.5737 67.8691C58.8432 67.8691 56.6284 65.6846 56.6284 63.0299C56.6284 60.3753 58.8432 58.1908 61.5737 58.1908C64.3042 58.1908 66.519 60.3753 66.519 63.0299C66.519 65.6846 64.3042 67.8691 61.5737 67.8691ZM61.5737 65.4419C62.9086 65.4419 63.9402 64.3952 63.9402 63.0299C63.9402 61.6647 62.8935 60.618 61.5737 60.618C60.2539 60.618 59.2072 61.6647 59.2072 63.0299C59.2072 64.4104 60.2539 65.4419 61.5737 65.4419ZM70.4176 59.4954V58.4487H67.9146V67.6264H70.4935V63.4395C70.4935 61.9226 71.3885 61.0731 72.9358 61.0731V58.3122C71.7677 58.2667 70.9334 58.6611 70.4176 59.4954ZM77.0012 62.9389V60.6938C77.5777 61.3006 78.3817 61.604 79.4132 61.604V59.1617C78.0176 59.1313 77.0012 58.1908 77.0012 56.9469V55.5058H74.4224V63.0906C74.4224 65.5481 75.9545 67.6415 79.1098 67.6415H79.4891V65.2144C78.048 65.2599 77.0012 64.5469 77.0012 62.9389ZM82.5685 67.7781C83.509 67.7781 84.2979 67.0044 84.2979 66.0487C84.2979 65.1082 83.5242 64.3194 82.5685 64.3194C81.6128 64.3194 80.8392 65.093 80.8392 66.0487C80.8392 67.0044 81.6128 67.7781 82.5685 67.7781Z"/><path id="Vector_3" fill="white" d="M52.8511 35.3302C53.6551 36.119 53.6702 37.4084 52.8814 38.2124L52.7297 38.3793C51.9409 39.1832 50.6515 39.1984 49.8475 38.4096L45.2966 33.9042C44.0375 32.6451 43.8706 31.0978 44.6594 30.2787L44.8111 30.1118C45.4634 29.4292 46.5405 29.3685 47.2838 29.9449C47.6327 30.218 48.1485 30.1573 48.4367 29.8084C48.7097 29.4595 48.6491 28.9437 48.3002 28.6555C46.8894 27.5481 44.8718 27.6846 43.6279 28.9589L43.4762 29.1258C42.0047 30.6427 42.293 33.2064 44.1285 35.0419L48.6946 39.5928C50.166 41.0036 52.487 40.9733 53.9129 39.517L54.0798 39.3501C55.4754 37.8938 55.4451 35.588 54.004 34.1621C53.6854 33.8435 53.1696 33.8435 52.8511 34.1773C52.5173 34.4958 52.5173 35.0116 52.8511 35.3302ZM50.1205 10.8918L51.9864 26.2132C52.0319 26.6531 52.4415 26.9868 52.8966 26.9262C53.3365 26.8807 53.6702 26.4711 53.6095 26.016L51.7437 10.6339L51.7285 10.5429C51.4099 9.26868 52.1988 7.84273 53.2606 7.61518C53.8523 7.49383 54.4742 7.60001 54.9748 7.93375C55.4754 8.26748 55.8243 8.78325 55.9457 9.37486L59.192 23.2399C59.2982 23.6799 59.7381 23.9529 60.178 23.8467C60.6179 23.7405 60.891 23.3006 60.7848 22.8607L57.5537 9.04113C57.3565 8.03993 56.7497 7.14492 55.885 6.56848C55.0203 5.99203 53.9433 5.79482 52.9269 6.0072C50.9245 6.43195 49.6199 8.76808 50.1205 10.8918Z"/><path id="Vector_4" fill="white" d="M67.2319 28.883L70.9181 10.5277C71.3429 8.55564 70.1748 6.56842 68.2179 5.99197C66.0335 5.44586 63.8339 6.72012 63.2726 8.87421L59.192 22.8455C59.0706 23.2854 59.3134 23.7405 59.7533 23.8618C60.1932 23.9832 60.6483 23.7405 60.7696 23.3006L64.8503 9.31413C65.1992 8.02471 66.5038 7.25105 67.778 7.56962C68.8702 7.90335 69.5529 9.04107 69.3102 10.194L65.6239 28.5644C65.5329 29.0043 65.8211 29.4443 66.2611 29.5353C66.7161 29.6111 67.1561 29.3229 67.2319 28.883ZM57.9633 46.5708C52.1229 46.5708 47.2535 42.293 47.2535 36.2099C47.2535 35.7548 46.8894 35.3908 46.4343 35.3908C45.9792 35.3908 45.6152 35.7548 45.6152 36.2099C45.6152 43.2487 51.2734 48.2091 57.9633 48.2091C58.4183 48.2091 58.7824 47.8451 58.7824 47.39C58.7824 46.9349 58.4183 46.5708 57.9633 46.5708ZM55.081 32.2658C54.9597 32.7209 54.6714 33.1305 54.277 33.3884L54.095 33.4946C53.1545 34.1317 51.8802 33.889 51.2431 32.9485L47.6631 27.6239C46.6922 26.1373 46.8136 24.59 47.7541 23.9377L47.9209 23.8163C49.1345 23.1185 50.1509 23.6495 51.1976 25.1816L54.186 29.6415C54.4439 30.0207 54.9445 30.1117 55.3237 29.869C55.703 29.6263 55.794 29.1105 55.5513 28.7313L52.5629 24.2714C51.0762 22.1173 49.2559 21.1616 47.0563 22.4359L46.8287 22.5876C45.0691 23.786 44.8567 26.3648 46.2978 28.5341L49.8778 33.8738C51.0307 35.5576 53.3062 35.9976 54.99 34.8598L55.172 34.7385C55.885 34.253 56.4008 33.5249 56.6435 32.6906C56.7649 32.2507 56.507 31.8107 56.067 31.6894C55.6423 31.568 55.2024 31.8259 55.081 32.2658Z"/><path id="Vector_5" fill="white" d="M60.4966 34.966C58.7976 35.9216 57.7357 37.6965 57.6144 40.4119C57.584 40.867 57.9329 41.2462 58.388 41.2765C58.8431 41.2917 59.2224 40.958 59.2527 40.5029C59.3741 38.0454 60.3297 36.7256 61.8619 36.1492C62.681 35.8458 63.5761 35.7851 64.3649 35.861L64.5621 35.8913C65.6088 36.0885 65.9425 34.526 64.8958 34.2833L58.6004 32.8725C55.6575 32.0686 55.2024 30.9763 55.7485 29.156C55.9912 28.3672 56.4615 27.9576 57.2048 27.7907C57.6902 27.6845 58.2212 27.6997 58.7369 27.7907C58.8886 27.8211 58.9948 27.8362 59.0403 27.8514L68.5972 30.0813L68.7793 30.142C68.9309 30.2027 69.0978 30.324 69.2647 30.4909C69.9018 31.1735 70.2659 32.463 70.0838 34.5867C69.4619 42.0198 66.0032 46.6314 57.7812 46.5556C57.3261 46.5556 56.9621 46.9196 56.9621 47.3596C56.9621 47.8147 57.3261 48.1787 57.7661 48.1787C66.9892 48.2546 71.0244 42.8997 71.707 34.7081C71.9194 32.1596 71.4491 30.4151 70.4631 29.3684C69.917 28.7919 69.3405 28.5189 68.9006 28.4582L59.4499 26.2586C59.3892 26.2434 59.2375 26.1979 59.0252 26.1676C58.3122 26.0462 57.5689 26.031 56.8407 26.1827C55.5665 26.471 54.5956 27.2749 54.186 28.6706C53.3972 31.2949 54.2315 33.358 58.206 34.435L60.4966 34.966Z"/></g></g><defs><clipPath id="clip0_2757_247935"><rect width="113.924" height="76" fill="white"/></clipPath></defs></svg>

<svg xmlns="http://www.w3.org/2000/svg" fill="none" aria-hidden="true" viewBox="0 0 114 76"><g clip-path="url(#a)"><path fill="#EF809F" d="M107.962 75.924H5.916a5.927 5.927 0 0 1-5.87-5.931V6.007A5.93 5.93 0 0 1 5.975.076h101.926a5.93 5.93 0 0 1 5.931 5.931v64.001c-.015 3.246-2.624 5.886-5.871 5.916Z"/><path fill="#fff" d="M34.192 67.869c2.58 0 4.551-1.73 4.551-4.263 0-2.35-1.669-3.367-3.717-3.974-1.304-.38-2.123-.668-2.123-1.593 0-.774.561-1.38 1.456-1.38.759 0 1.32.44 1.73 1.107l2.138-1.35c-.667-1.471-2.169-2.23-3.792-2.23-2.579 0-4.217 1.85-4.217 4.005 0 1.714 1.031 3.034 3.565 3.777 1.38.394 2.26.667 2.26 1.76 0 1.031-.743 1.668-1.82 1.668-1.153 0-2.033-.743-2.564-1.426l-1.775 1.775c.956 1.305 2.503 2.124 4.308 2.124Zm10.422 0c-2.73 0-4.945-2.184-4.945-4.84 0-2.654 2.214-4.838 4.945-4.838 2.73 0 4.945 2.184 4.945 4.839 0 2.655-2.215 4.839-4.945 4.839Zm0-2.427c1.32 0 2.366-1.047 2.366-2.412s-1.046-2.412-2.366-2.412c-1.335 0-2.367 1.047-2.367 2.412 0 1.38 1.047 2.412 2.367 2.412Zm11.332-8.662v-2.427h-.38c-3.14 0-4.687 2.093-4.687 4.55v8.723h2.579v-3.822c0-1.275.986-2.185 2.412-2.215V59.13c-1.017 0-1.836.304-2.412.91v-.985c0-1.608 1.046-2.337 2.488-2.276Zm5.628 11.089c-2.731 0-4.946-2.184-4.946-4.84 0-2.654 2.215-4.838 4.946-4.838 2.73 0 4.945 2.184 4.945 4.839 0 2.655-2.215 4.839-4.946 4.839Zm0-2.427c1.334 0 2.366-1.047 2.366-2.412s-1.047-2.412-2.366-2.412c-1.32 0-2.367 1.047-2.367 2.412 0 1.38 1.047 2.412 2.367 2.412Zm8.843-5.947V58.45h-2.503v9.177h2.58V63.44c0-1.517.894-2.366 2.442-2.366v-2.76c-1.169-.046-2.003.348-2.519 1.182Zm6.584 3.444v-2.245c.576.607 1.38.91 2.412.91v-2.442c-1.396-.03-2.412-.971-2.412-2.215v-1.441h-2.579v7.585c0 2.457 1.532 4.55 4.688 4.55h.379v-2.427C78.048 65.26 77 64.547 77 62.94Zm5.567 4.839c.94 0 1.73-.774 1.73-1.73 0-.94-.774-1.729-1.73-1.729a1.729 1.729 0 1 0 0 3.459ZM52.85 35.33c.805.789.82 2.078.031 2.882l-.151.167a2.037 2.037 0 0 1-2.883.03l-4.55-4.505c-1.26-1.259-1.426-2.806-.638-3.625l.152-.167c.652-.683 1.73-.744 2.473-.167a.836.836 0 0 0 1.153-.137.836.836 0 0 0-.137-1.152 3.508 3.508 0 0 0-4.672.303l-.152.167c-1.471 1.517-1.183 4.08.652 5.916l4.566 4.55a3.704 3.704 0 0 0 5.219-.075l.167-.167a3.695 3.695 0 0 0-.076-5.188.802.802 0 0 0-1.153.015.789.789 0 0 0 0 1.153Zm-2.73-24.438 1.866 15.321a.81.81 0 0 0 .91.713.81.81 0 0 0 .713-.91l-1.865-15.382-.016-.091c-.318-1.274.47-2.7 1.532-2.928a2.27 2.27 0 0 1 1.715.319c.5.333.85.85.97 1.44l3.247 13.866a.818.818 0 1 0 1.593-.38L57.554 9.042a3.899 3.899 0 0 0-1.67-2.473 3.912 3.912 0 0 0-2.957-.56c-2.003.424-3.307 2.76-2.807 4.884Z"/><path fill="#fff" d="m67.232 28.883 3.686-18.355a3.882 3.882 0 0 0-2.7-4.536c-2.185-.546-4.384.728-4.946 2.882l-4.08 13.972a.817.817 0 0 0 .561 1.016.817.817 0 0 0 1.017-.561l4.08-13.987c.35-1.29 1.654-2.063 2.928-1.744a2.26 2.26 0 0 1 1.532 2.624l-3.686 18.37c-.091.44.197.88.637.971.455.076.895-.212.97-.652Zm-9.269 17.688c-5.84 0-10.71-4.278-10.71-10.361a.816.816 0 0 0-.819-.82.816.816 0 0 0-.819.82c0 7.039 5.658 12 12.348 12 .455 0 .82-.365.82-.82a.816.816 0 0 0-.82-.82Zm-2.882-14.305a1.95 1.95 0 0 1-.804 1.122l-.182.107a2.05 2.05 0 0 1-2.852-.546l-3.58-5.325c-.97-1.487-.85-3.034.091-3.686l.167-.122c1.213-.697 2.23-.166 3.276 1.366l2.989 4.46a.827.827 0 0 0 1.138.227c.379-.243.47-.758.227-1.138l-2.988-4.46c-1.487-2.154-3.307-3.11-5.507-1.835l-.227.152c-1.76 1.198-1.972 3.777-.531 5.946l3.58 5.34a3.685 3.685 0 0 0 5.112.986l.182-.121a3.73 3.73 0 0 0 1.471-2.048.81.81 0 0 0-.576-1.002.801.801 0 0 0-.986.577Z"/><path fill="#fff" d="M60.497 34.966c-1.7.956-2.761 2.73-2.883 5.446a.817.817 0 0 0 .774.865.827.827 0 0 0 .865-.774c.121-2.458 1.077-3.777 2.609-4.354.819-.303 1.714-.364 2.503-.288l.197.03c1.047.198 1.38-1.365.334-1.608l-6.296-1.41c-2.943-.804-3.398-1.897-2.852-3.717.243-.789.714-1.198 1.457-1.365.485-.106 1.016-.091 1.532 0 .152.03.258.045.303.06l9.557 2.23.182.061c.152.06.319.182.486.349.637.683 1 1.972.819 4.096-.622 7.433-4.08 12.044-12.303 11.969a.813.813 0 0 0-.015 1.623c9.223.076 13.258-5.28 13.941-13.47.212-2.55-.258-4.294-1.244-5.34-.546-.577-1.122-.85-1.562-.91l-9.451-2.2c-.06-.015-.213-.061-.425-.091a5.878 5.878 0 0 0-2.184.015c-1.275.288-2.245 1.092-2.655 2.488-.789 2.624.045 4.687 4.02 5.764l2.29.531Z"/></g><defs><clipPath id="a"><path fill="#fff" d="M0 0h113.924v76H0z"/></clipPath></defs></svg>
